dist/assets/images/film.svg

<?xml version="1.0" encoding="UTF-8"?>
<svg width="30px" height="23px" viewBox="0 0 30 23" version="1.1" xmlns="http://www.w3.org/2000/svg" xmlns:xlink="http://www.w3.org/1999/xlink">
    <!-- Generator: Sketch 52.5 (67469) - http://www.bohemiancoding.com/sketch -->
    <title>luke-carl-hartman-web-development-for-denali-innovationsfilm-solid</title>
    <desc>Created with Sketch.</desc>
    <g id="Page-1" stroke="none" stroke-width="1" fill="none" fill-rule="evenodd">
        <g id="Catalog" transform="translate(-149.000000, -152.000000)" fill="#7FD2E6" fill-rule="nonzero">
            <g id="Group-2" transform="translate(149.000000, 146.000000)">
                <g id="film-solid" transform="translate(0.000000, 6.000000)">
                    <path d="M28.0736823,0 L27.613458,0 L27.613458,1.19369865 C27.613458,1.5876192 27.3028066,1.90991784 26.9231215,1.90991784 L24.622,1.90991784 C24.242315,1.90991784 23.9316636,1.5876192 23.9316636,1.19369865 L23.9316636,0 L5.52269159,0 L5.52269159,1.19369865 C5.52269159,1.5876192 5.21204019,1.90991784 4.83235514,1.90991784 L2.53123365,1.90991784 C2.1515486,1.90991784 1.8408972,1.5876192 1.8408972,1.19369865 L1.8408972,0 L1.3806729,0 C0.615550001,0 0,0.638628778 0,1.43243838 L0,21.4865757 C0,22.2803853 0.615550001,22.9190141 1.3806729,22.9190141 L1.8408972,22.9190141 L1.8408972,21.7253154 C1.8408972,21.3313949 2.1515486,21.0090962 2.53123365,21.0090962 L4.83235514,21.0090962 C5.21204019,21.0090962 5.52269159,21.3313949 5.52269159,21.7253154 L5.52269159,22.9190141 L23.9316636,22.9190141 L23.9316636,21.7253154 C23.9316636,21.3313949 24.242315,21.0090962 24.622,21.0090962 L26.9231215,21.0090962 C27.3028066,21.0090962 27.613458,21.3313949 27.613458,21.7253154 L27.613458,22.9190141 L28.0736823,22.9190141 C28.8388052,22.9190141 29.4543552,22.2803853 29.4543552,21.4865757 L29.4543552,1.43243838 C29.4543552,0.638628778 28.8388052,0 28.0736823,0 Z M5.58617081,18.4884489 C5.58617081,18.8732085 5.28623152,19.1880118 4.91963906,19.1880118 L2.69786658,19.1880118 C2.33127412,19.1880118 2.03133484,18.8732085 2.03133484,18.4884489 L2.03133484,16.1565724 C2.03133484,15.7718128 2.33127412,15.4570095 2.69786658,15.4570095 L4.91963906,15.4570095 C5.28623152,15.4570095 5.58617081,15.7718128 5.58617081,16.1565724 L5.58617081,18.4884489 Z M5.58617081,12.6254453 C5.58617081,13.0102049 5.28623152,13.3250082 4.91963906,13.3250082 L2.69786658,13.3250082 C2.33127412,13.3250082 2.03133484,13.0102049 2.03133484,12.6254453 L2.03133484,10.2935688 C2.03133484,9.90880921 2.33127412,9.5940059 2.69786658,9.5940059 L4.91963906,9.5940059 C5.28623152,9.5940059 5.58617081,9.90880921 5.58617081,10.2935688 L5.58617081,12.6254453 Z M5.58617081,6.76244166 C5.58617081,7.14720127 5.28623152,7.46200459 4.91963906,7.46200459 L2.69786658,7.46200459 C2.33127412,7.46200459 2.03133484,7.14720127 2.03133484,6.76244166 L2.03133484,4.43056522 C2.03133484,4.04580561 2.33127412,3.73100229 2.69786658,3.73100229 L4.91963906,3.73100229 C5.28623152,3.73100229 5.58617081,4.04580561 5.58617081,4.43056522 L5.58617081,6.76244166 Z M21.3290158,19.0281117 C21.3290158,19.4092069 21.0229553,19.7210121 20.6488814,19.7210121 L9.3133075,19.7210121 C8.93923356,19.7210121 8.63317307,19.4092069 8.63317307,19.0281117 L8.63317307,13.4849083 C8.63317307,13.1038131 8.93923356,12.7920079 9.3133075,12.7920079 L20.6488814,12.7920079 C21.0229553,12.7920079 21.3290158,13.1038131 21.3290158,13.4849083 L21.3290158,19.0281117 Z M21.3290158,9.4341058 C21.3290158,9.81520103 21.0229553,10.1270062 20.6488814,10.1270062 L9.3133075,10.1270062 C8.93923356,10.1270062 8.63317307,9.81520103 8.63317307,9.4341058 L8.63317307,3.89090239 C8.63317307,3.50980716 8.93923356,3.19800197 9.3133075,3.19800197 L20.6488814,3.19800197 C21.0229553,3.19800197 21.3290158,3.50980716 21.3290158,3.89090239 L21.3290158,9.4341058 Z M27.4230203,18.4884489 C27.4230203,18.8732085 27.123081,19.1880118 26.7564886,19.1880118 L24.5347161,19.1880118 C24.1681236,19.1880118 23.8681844,18.8732085 23.8681844,18.4884489 L23.8681844,16.1565724 C23.8681844,15.7718128 24.1681236,15.4570095 24.5347161,15.4570095 L26.7564886,15.4570095 C27.123081,15.4570095 27.4230203,15.7718128 27.4230203,16.1565724 L27.4230203,18.4884489 Z M27.4230203,12.6254453 C27.4230203,13.0102049 27.123081,13.3250082 26.7564886,13.3250082 L24.5347161,13.3250082 C24.1681236,13.3250082 23.8681844,13.0102049 23.8681844,12.6254453 L23.8681844,10.2935688 C23.8681844,9.90880921 24.1681236,9.5940059 24.5347161,9.5940059 L26.7564886,9.5940059 C27.123081,9.5940059 27.4230203,9.90880921 27.4230203,10.2935688 L27.4230203,12.6254453 Z M27.4230203,6.76244166 C27.4230203,7.14720127 27.123081,7.46200459 26.7564886,7.46200459 L24.5347161,7.46200459 C24.1681236,7.46200459 23.8681844,7.14720127 23.8681844,6.76244166 L23.8681844,4.43056522 C23.8681844,4.04580561 24.1681236,3.73100229 24.5347161,3.73100229 L26.7564886,3.73100229 C27.123081,3.73100229 27.4230203,4.04580561 27.4230203,4.43056522 L27.4230203,6.76244166 Z" id="Shape"></path>
                </g>
            </g>
        </g>
    </g>
</svg>

<svg width="30" height="23" xmlns="http://www.w3.org/2000/svg"><path d="M28.074 0h-.46v1.194a.706.706 0 0 1-.69.716h-2.302a.706.706 0 0 1-.69-.716V0H5.522v1.194c0 .394-.31.716-.69.716h-2.3a.706.706 0 0 1-.691-.716V0h-.46C.616 0 0 .639 0 1.432v20.055c0 .793.616 1.432 1.38 1.432h.46v-1.194c0-.394.312-.716.691-.716h2.301c.38 0 .69.322.69.716v1.194h18.41v-1.194c0-.394.31-.716.69-.716h2.301c.38 0 .69.322.69.716v1.194h.46c.766 0 1.381-.639 1.381-1.432V1.432C29.454.64 28.84 0 28.074 0zM5.586 18.488c0 .385-.3.7-.666.7H2.698c-.367 0-.667-.315-.667-.7v-2.331c0-.385.3-.7.667-.7H4.92c.366 0 .666.315.666.7v2.331zm0-5.863c0 .385-.3.7-.666.7H2.698c-.367 0-.667-.315-.667-.7v-2.331c0-.385.3-.7.667-.7H4.92c.366 0 .666.315.666.7v2.331zm0-5.863c0 .385-.3.7-.666.7H2.698c-.367 0-.667-.315-.667-.7V4.431c0-.385.3-.7.667-.7H4.92c.366 0 .666.315.666.7v2.331zM21.33 19.028a.689.689 0 0 1-.68.693H9.313a.689.689 0 0 1-.68-.693v-5.543c0-.381.306-.693.68-.693H20.65c.374 0 .68.312.68.693v5.543zm0-9.594a.689.689 0 0 1-.68.693H9.313a.689.689 0 0 1-.68-.693V3.891c0-.381.306-.693.68-.693H20.65c.374 0 .68.312.68.693v5.543zm6.094 9.054c0 .385-.3.7-.667.7h-2.221c-.367 0-.667-.315-.667-.7v-2.331c0-.385.3-.7.667-.7h2.221c.367 0 .667.315.667.7v2.331zm0-5.863c0 .385-.3.7-.667.7h-2.221c-.367 0-.667-.315-.667-.7v-2.331c0-.385.3-.7.667-.7h2.221c.367 0 .667.315.667.7v2.331zm0-5.863c0 .385-.3.7-.667.7h-2.221c-.367 0-.667-.315-.667-.7V4.431c0-.385.3-.7.667-.7h2.221c.367 0 .667.315.667.7v2.331z" fill="#7FD2E6"/></svg>
